X: 3
T: Bo Mhin Na Toitean
R: strathspey
M: 4/4
L: 1/8
K: Ador
|:A2 e2 !roll!e2 dB|d2 ef ge !slide!a2|A2 e2 !roll!e2 dB|eg ed !roll!B2 AG|
A2 e2 !roll!e2 dB|d2 ef ge !slide!a2|eg ed (3efg ed|B2 A2 {c/}A2 BG:||
|:A2 a2{c'/}a2 ge|d2 ef ge !slide!a2|A2 a2 {c'/}a2 ge|dg ed !roll!B2 AG|
A2 a2 {c'/}a2 ge|d2 ef ge !slide!a2|eg ed (3efg ed|B2 A2 {c/}A2 BG:||


Tune 5252	Setting 25085

